X: 40855
T: Travellers', The
R: slide
M: 12/8
K: Dmajor
|:A2d d2e fed B2d|A2F ABc A2F ABc|
A2d d2e fed B2d|A2F ABc d3 d3:|
|:A2d d2c d2f a2 f|g2e gfe d2B ABc|
A2d d2c d2f a2 f|gfe efg d3 d3:|

